svg/300/sharp/event_available.svg

<svg xmlns="http://www.w3.org/2000/svg" width="48" height="48" viewBox="0 -960 960 960"><path d="M434.539-242.232 309.232-366.539l31.614-31.614 93.693 92.077 180.153-180.539 31.999 32.23-212.152 212.153ZM140.001-100.001v-694.613H271.54v-70h50.384v70h317.691v-70h49.229v70h131.155v694.613H140.001Zm45.384-45.384h589.23v-409.614h-589.23v409.614Zm0-454.997h589.23V-749.23h-589.23v148.848Zm0 0V-749.23v148.848Z"/></svg>

<svg xmlns="http://www.w3.org/2000/svg" width="48" height="48" viewBox="0 -960 960 960"><path d="M434.54-242.23 309.23-366.54l31.62-31.61 93.69 92.07 180.15-180.53 32 32.23-212.15 212.15ZM140-100v-694.61h131.54v-70h50.38v70h317.69v-70h49.23v70H820V-100H140Zm45.39-45.39h589.22V-555H185.39v409.61Zm0-454.99h589.22v-148.85H185.39v148.85Zm0 0v-148.85 148.85Z"/></svg>
